X: 10
T: Minuet
C: Michael Dabney
R: minuet
B: Michael Dabney "Twelve Minuets and Twelve Dances" p.5 #2
S: http://imslp.org/wiki/12_Minuets_and_12_Dances_(Dabney,_Michael)
Z: 2015 John Chambers <jc:trillian.mit.edu>
M: 3/4
L: 1/8
K: C
% - - - - - - - - - - - - - - - - - - - - - - - - -
% Voice 1 produces mostly 4- or 8-bar staffs.
V: 1
|:\
c>dcG FE | (3(FGA) A2 G2 | A2 fdcB | Tc>B c4 |\
Tc2 (e>c)(e>c) | Td2 (f>d)(f>d) | e2 gedc | Tc2 B2 z2 :|
|:\
d>edcBA | G2 F2 E2 | a>gf>ed>c | Tc2 B2 z2 |\
"_P.o"A^GABcd | e^defea | {g}fe/d/ Tc2 B2 | "for"A4 z2 |
c>dcG FE | (3FGA A2 G2 | A2 fedc | Tc2 B2 z2 |\
(G/c/B/c/) (e/c/B/c/) (G/c/B/c/) | (G/c/B/c/) (g/c/B/c/) (e/c/B/c/) |\
{B}AG/F/ E2 TD2 | C6 :|
% - - - - - - - - - - - - - - - - - - - - - - - - -
% Voice 2 preserves the staff breaks in the book.
V: 2 clef=bass middle=d
|:\
c4 c2 | f4 "6"e2 | f2 d2 g2 | c2 G2 C2 |\
z2 c4 | z2 B4 | c4 C2 | "6;4 3"G4 z2 :|\
|:\
z2 g2 "4;2"f2 | "6"e2 "6"d2 c2 | z2 z2 "7"d2 |"6;4"e3 e^ge |
"P.o"a4 "6"b2 | "6"c'2 z2 c'2 | d'2 "6;4"e'2 "#"e2 | "for"a2 gfed |\
c4 c2 | f4 "6"e2 | f4 "6"^f2 | "6;4"g2 "3"G2 z2 |\
c2 z2 c2 | c2 z2 e2 | f2 g2 G2 | C6 :|
% - - - - - - - - - - - - - - - - - - - - - - - - -

%%sep 1 1 500
%%sep 1 1 500
